;FLAVOR:Marlin
;TIME:1535
;Filament used: 1.02055m
;Layer height: 0.2
;MINX:86.3
;MINY:73.6
;MINZ:0.2
;MAXX:133.7
;MAXY:146.4
;MAXZ:3
;Generated with Cura_SteamEngine 4.7.1
M140 S60
M105
M190 S60
M104 S200
M105
M109 S200
M82 ;absolute extrusion mode
; Ender 3 Custom Start G-code
G92 E0 ; Reset Extruder
G28 ; Home all axes
G1 Z2.0 F3000 ; Move Z Axis up little to prevent scratching of Heat Bed
G1 X0.1 Y20 Z0.3 F5000.0 ; Move to start position
G1 X0.1 Y200.0 Z0.3 F1500.0 E15 ; Draw the first line
G1 X0.4 Y200.0 Z0.3 F5000.0 ; Move to side a little
G1 X0.4 Y20 Z0.3 F1500.0 E30 ; Draw the second line
G92 E0 ; Reset Extruder
G1 Z2.0 F3000 ; Move Z Axis up little to prevent scratching of Heat Bed
G1 X5 Y20 Z0.3 F5000.0 ; Move over to prevent blob squish
G92 E0
G92 E0
G1 F1500 E-6.5
;LAYER_COUNT:15
;LAYER:0
M107
G0 F6000 X90.442 Y79.718 Z0.2
;TYPE:SKIRT
G1 F1500 E0
G1 F1200 X90.878 Y79.24 E0.02152
G1 X91.328 Y78.775 E0.04304
G1 X91.567 Y78.537 E0.05426
G1 X91.887 Y78.226 E0.0691
G1 X92.586 Y77.601 E0.10029
G1 X93.091 Y77.212 E0.12149
G1 X93.62 Y76.828 E0.14323
G1 X93.914 Y76.622 E0.15517
G1 X94.295 Y76.364 E0.17048
G1 X95.094 Y75.872 E0.20168
G1 X95.643 Y75.584 E0.2223
G1 X96.201 Y75.312 E0.24295
G1 X96.514 Y75.166 E0.25444
G1 X96.957 Y74.967 E0.27059
G1 X97.828 Y74.619 E0.30179
G1 X98.44 Y74.425 E0.32314
G1 X99.052 Y74.25 E0.34431
G1 X99.351 Y74.169 E0.35461
G1 X99.789 Y74.057 E0.36965
G1 X100.707 Y73.864 E0.40085
G1 X101.373 Y73.773 E0.42321
G1 X102.073 Y73.7 E0.44662
G1 X102.44 Y73.668 E0.45887
G1 X102.851 Y73.639 E0.47257
G1 X103.451 Y73.613 E0.49255
G1 X104.208 Y73.601 E0.51773
G1 X115.643 Y73.6 E0.89806
G1 X115.804 Y73.601 E0.90341
G1 X116.488 Y73.611 E0.92617
G1 X117.104 Y73.637 E0.94667
G1 X117.697 Y73.679 E0.96645
G1 X118.03 Y73.708 E0.97756
G1 X118.533 Y73.759 E0.99438
G1 X119.461 Y73.893 E1.02556
G1 X120.106 Y74.035 E1.04753
G1 X120.762 Y74.2 E1.07003
G1 X121.067 Y74.282 E1.08053
G1 X121.485 Y74.4 E1.09498
G1 X122.376 Y74.693 E1.12618
G1 X122.997 Y74.949 E1.14852
G1 X123.597 Y75.218 E1.17039
G1 X123.866 Y75.343 E1.18025
G1 X124.263 Y75.534 E1.19491
G1 X125.09 Y75.976 E1.22609
G1 X125.659 Y76.336 E1.24849
G1 X126.191 Y76.696 E1.26985
G1 X126.461 Y76.885 E1.28081
G1 X126.845 Y77.162 E1.29656
G1 X127.582 Y77.742 E1.32776
G1 X128.059 Y78.178 E1.34925
G1 X128.523 Y78.627 E1.37073
G1 X128.762 Y78.865 E1.38194
G1 X129.074 Y79.186 E1.39683
G1 X129.698 Y79.886 E1.42802
G1 X130.088 Y80.391 E1.44924
G1 X130.472 Y80.92 E1.47099
G1 X130.678 Y81.214 E1.48293
G1 X130.936 Y81.595 E1.49823
G1 X131.428 Y82.394 E1.52944
G1 X131.716 Y82.943 E1.55006
G1 X131.988 Y83.501 E1.57071
G1 X132.131 Y83.807 E1.58194
G1 X132.329 Y84.247 E1.59799
G1 X132.677 Y85.118 E1.62918
G1 X132.873 Y85.735 E1.65072
G1 X133.049 Y86.35 E1.67199
G1 X133.131 Y86.651 E1.68237
G1 X133.243 Y87.089 E1.6974
G1 X133.436 Y88.007 E1.7286
G1 X133.527 Y88.673 E1.75096
G1 X133.6 Y89.373 E1.77437
G1 X133.631 Y89.736 E1.78649
G1 X133.66 Y90.145 E1.80013
G1 X133.687 Y90.749 E1.82023
G1 X133.699 Y91.508 E1.84548
G1 X133.7 Y128.343 E3.07062
G1 X133.699 Y128.504 E3.07597
G1 X133.689 Y129.188 E3.09873
G1 X133.663 Y129.804 E3.11923
G1 X133.621 Y130.397 E3.13901
G1 X133.592 Y130.73 E3.15012
G1 X133.541 Y131.233 E3.16694
G1 X133.407 Y132.161 E3.19812
G1 X133.265 Y132.806 E3.22009
G1 X133.1 Y133.462 E3.24259
G1 X133.016 Y133.774 E3.25334
G1 X132.898 Y134.191 E3.26775
G1 X132.605 Y135.082 E3.29895
G1 X132.358 Y135.681 E3.3205
G1 X132.091 Y136.279 E3.34228
G1 X131.954 Y136.574 E3.3531
G1 X131.761 Y136.974 E3.36787
G1 X131.318 Y137.801 E3.39907
G1 X130.964 Y138.359 E3.42105
G1 X130.606 Y138.888 E3.4423
G1 X130.419 Y139.156 E3.45316
G1 X130.14 Y139.543 E3.46903
G1 X129.56 Y140.28 E3.50023
G1 X129.124 Y140.757 E3.52172
G1 X128.683 Y141.213 E3.54282
G1 X128.446 Y141.451 E3.55399
G1 X128.117 Y141.771 E3.56926
G1 X127.417 Y142.396 E3.60047
G1 X126.909 Y142.788 E3.62181
G1 X126.38 Y143.172 E3.64355
G1 X126.086 Y143.378 E3.65549
G1 X125.705 Y143.636 E3.67079
G1 X124.906 Y144.128 E3.702
G1 X124.357 Y144.416 E3.72262
G1 X123.799 Y144.688 E3.74327
G1 X123.495 Y144.83 E3.75443
G1 X123.053 Y145.029 E3.77055
G1 X122.182 Y145.378 E3.80176
G1 X121.557 Y145.576 E3.82357
G1 X120.944 Y145.751 E3.84477
G1 X120.649 Y145.831 E3.85494
G1 X120.211 Y145.943 E3.86997
G1 X119.293 Y146.136 E3.90117
G1 X118.627 Y146.227 E3.92353
G1 X117.927 Y146.3 E3.94694
G1 X117.56 Y146.332 E3.95919
G1 X117.149 Y146.361 E3.97289
G1 X116.549 Y146.387 E3.99287
G1 X115.792 Y146.399 E4.01805
G1 X104.357 Y146.4 E4.39838
G1 X104.196 Y146.399 E4.40373
G1 X103.512 Y146.389 E4.42649
G1 X102.896 Y146.363 E4.44699
G1 X102.303 Y146.321 E4.46677
G1 X101.97 Y146.292 E4.47788
G1 X101.467 Y146.241 E4.4947
G1 X100.539 Y146.107 E4.52589
G1 X99.894 Y145.965 E4.54785
G1 X99.238 Y145.8 E4.57035
G1 X98.933 Y145.718 E4.58085
G1 X98.515 Y145.6 E4.5953
G1 X97.624 Y145.307 E4.6265
G1 X97.003 Y145.051 E4.64884
G1 X96.403 Y144.782 E4.67071
G1 X96.134 Y144.657 E4.68057
G1 X95.737 Y144.466 E4.69523
G1 X94.91 Y144.024 E4.72641
G1 X94.341 Y143.664 E4.74881
G1 X93.809 Y143.304 E4.77017
G1 X93.539 Y143.115 E4.78114
G1 X93.155 Y142.838 E4.79688
G1 X92.418 Y142.258 E4.82808
G1 X91.937 Y141.818 E4.84976
G1 X91.46 Y141.356 E4.87185
G1 X91.22 Y141.117 E4.88311
G1 X90.921 Y140.809 E4.89739
G1 X90.297 Y140.109 E4.92858
G1 X89.912 Y139.609 E4.94957
G1 X89.528 Y139.08 E4.97131
G1 X89.322 Y138.786 E4.98325
G1 X89.064 Y138.405 E4.99855
G1 X88.572 Y137.606 E5.02976
G1 X88.284 Y137.057 E5.05038
G1 X88.012 Y136.499 E5.07103
G1 X87.866 Y136.186 E5.08252
G1 X87.667 Y135.743 E5.09867
G1 X87.319 Y134.872 E5.12986
G1 X87.125 Y134.26 E5.15122
G1 X86.95 Y133.648 E5.17239
G1 X86.869 Y133.349 E5.18269
G1 X86.757 Y132.911 E5.19773
G1 X86.564 Y131.993 E5.22893
G1 X86.473 Y131.327 E5.25129
G1 X86.4 Y130.627 E5.27469
G1 X86.369 Y130.264 E5.28681
G1 X86.34 Y129.855 E5.30045
G1 X86.313 Y129.251 E5.32056
G1 X86.301 Y128.492 E5.34581
G1 X86.3 Y91.657 E6.57094
G1 X86.301 Y91.496 E6.5763
G1 X86.311 Y90.812 E6.59905
G1 X86.338 Y90.184 E6.61996
G1 X86.382 Y89.572 E6.64036
G1 X86.41 Y89.253 E6.65102
G1 X86.459 Y88.769 E6.6672
G1 X86.593 Y87.841 E6.69838
G1 X86.735 Y87.194 E6.72041
G1 X86.9 Y86.538 E6.74291
G1 X86.984 Y86.226 E6.75366
G1 X87.102 Y85.809 E6.76807
G1 X87.395 Y84.918 E6.79927
G1 X87.646 Y84.31 E6.82115
G1 X87.915 Y83.709 E6.84305
G1 X88.043 Y83.434 E6.85313
G1 X88.234 Y83.037 E6.86779
G1 X88.676 Y82.21 E6.89898
G1 X89.036 Y81.641 E6.92137
G1 X89.396 Y81.109 E6.94274
G1 X89.585 Y80.839 E6.9537
G1 X89.862 Y80.455 E6.96944
G1 X90.442 Y79.718 E7.00064
G0 F6000 X90.757 Y79.966
G1 F1200 X91.166 Y79.519 E7.02079
G1 X91.616 Y79.054 E7.04231
G1 X91.845 Y78.824 E7.05311
G1 X92.165 Y78.513 E7.06795
G1 X92.853 Y77.9 E7.0986
G1 X93.326 Y77.536 E7.11845
G1 X93.855 Y77.152 E7.14019
G1 X94.139 Y76.953 E7.15172
G1 X94.52 Y76.695 E7.16703
G1 X95.304 Y76.212 E7.19765
G1 X95.818 Y75.944 E7.21693
G1 X96.376 Y75.672 E7.23758
G1 X96.677 Y75.531 E7.24864
G1 X97.12 Y75.332 E7.26479
G1 X97.976 Y74.991 E7.29544
G1 X98.55 Y74.809 E7.31546
G1 X99.162 Y74.634 E7.33664
G1 X99.45 Y74.556 E7.34656
G1 X99.888 Y74.444 E7.3616
G1 X100.789 Y74.255 E7.39222
G1 X101.415 Y74.171 E7.41322
G1 X102.115 Y74.098 E7.43663
G1 X102.468 Y74.067 E7.44842
G1 X102.879 Y74.038 E7.46212
G1 X103.457 Y74.013 E7.48136
G1 X104.214 Y74.001 E7.50654
G1 X115.643 Y74 E7.88667
G1 X115.798 Y74.001 E7.89183
G1 X116.482 Y74.011 E7.91458
G1 X117.076 Y74.036 E7.93436
G1 X117.669 Y74.078 E7.95413
G1 X117.989 Y74.106 E7.96481
G1 X118.492 Y74.157 E7.98163
G1 X119.403 Y74.29 E8.01225
G1 X120.009 Y74.423 E8.03289
G1 X120.665 Y74.588 E8.05538
G1 X120.959 Y74.667 E8.06551
G1 X121.377 Y74.785 E8.07995
G1 X122.251 Y75.073 E8.11056
G1 X122.833 Y75.314 E8.13151
G1 X123.433 Y75.583 E8.15338
G1 X123.693 Y75.703 E8.16291
G1 X124.09 Y75.894 E8.17756
G1 X124.901 Y76.329 E8.20817
G1 X125.435 Y76.667 E8.22919
G1 X125.967 Y77.027 E8.25055
G1 X126.227 Y77.209 E8.26111
G1 X126.611 Y77.486 E8.27686
G1 X127.334 Y78.057 E8.3075
G1 X127.781 Y78.466 E8.32765
G1 X128.245 Y78.915 E8.34913
G1 X128.475 Y79.144 E8.35992
G1 X128.787 Y79.465 E8.37481
G1 X129.4 Y80.152 E8.40543
G1 X129.764 Y80.626 E8.42531
G1 X130.148 Y81.155 E8.44705
G1 X130.347 Y81.439 E8.45859
G1 X130.605 Y81.82 E8.47389
G1 X131.088 Y82.604 E8.50452
G1 X131.356 Y83.118 E8.5238
G1 X131.628 Y83.676 E8.54445
G1 X131.766 Y83.971 E8.55528
G1 X131.964 Y84.411 E8.57133
G1 X132.305 Y85.266 E8.60194
G1 X132.489 Y85.845 E8.62215
G1 X132.665 Y86.46 E8.64342
G1 X132.744 Y86.75 E8.65342
G1 X132.856 Y87.188 E8.66846
G1 X133.045 Y88.089 E8.69908
G1 X133.129 Y88.715 E8.72008
G1 X133.202 Y89.415 E8.74349
G1 X133.232 Y89.764 E8.75514
G1 X133.261 Y90.173 E8.76878
G1 X133.287 Y90.755 E8.78816
G1 X133.299 Y91.514 E8.81341
G1 X133.3 Y128.343 E10.03834
G1 X133.299 Y128.498 E10.0435
G1 X133.289 Y129.182 E10.06625
G1 X133.264 Y129.776 E10.08602
G1 X133.222 Y130.369 E10.1058
G1 X133.194 Y130.689 E10.11648
G1 X133.143 Y131.192 E10.1333
G1 X133.01 Y132.103 E10.16392
G1 X132.877 Y132.709 E10.18455
G1 X132.712 Y133.365 E10.20705
G1 X132.632 Y133.665 E10.21738
G1 X132.514 Y134.082 E10.23179
G1 X132.225 Y134.956 E10.26241
G1 X131.993 Y135.518 E10.28263
G1 X131.726 Y136.116 E10.30441
G1 X131.594 Y136.4 E10.31483
G1 X131.401 Y136.8 E10.3296
G1 X130.965 Y137.611 E10.36023
G1 X130.633 Y138.135 E10.38086
G1 X130.275 Y138.664 E10.4021
G1 X130.094 Y138.922 E10.41259
G1 X129.815 Y139.309 E10.42845
G1 X129.245 Y140.032 E10.45908
G1 X128.837 Y140.479 E10.47921
G1 X128.396 Y140.935 E10.5003
G1 X128.167 Y141.165 E10.5111
G1 X127.838 Y141.485 E10.52636
G1 X127.15 Y142.097 E10.55699
G1 X126.674 Y142.464 E10.57698
G1 X126.145 Y142.848 E10.59872
G1 X125.861 Y143.047 E10.61026
G1 X125.48 Y143.305 E10.62556
G1 X124.696 Y143.788 E10.65619
G1 X124.182 Y144.056 E10.67547
G1 X123.624 Y144.328 E10.69611
G1 X123.331 Y144.466 E10.70689
G1 X122.889 Y144.665 E10.72301
G1 X122.034 Y145.006 E10.75362
G1 X121.447 Y145.192 E10.77411
G1 X120.834 Y145.367 E10.79531
G1 X120.55 Y145.444 E10.8051
G1 X120.112 Y145.556 E10.82013
G1 X119.211 Y145.745 E10.85075
G1 X118.585 Y145.829 E10.87176
G1 X117.885 Y145.902 E10.89517
G1 X117.532 Y145.933 E10.90695
G1 X117.121 Y145.962 E10.92066
G1 X116.543 Y145.987 E10.9399
G1 X115.786 Y145.999 E10.96508
G1 X104.357 Y146 E11.34521
G1 X104.202 Y145.999 E11.35037
G1 X103.518 Y145.989 E11.37312
G1 X102.924 Y145.964 E11.39289
G1 X102.331 Y145.922 E11.41267
G1 X102.011 Y145.894 E11.42335
G1 X101.508 Y145.843 E11.44016
G1 X100.597 Y145.71 E11.47079
G1 X99.991 Y145.577 E11.49142
G1 X99.335 Y145.412 E11.51392
G1 X99.041 Y145.333 E11.52404
G1 X98.623 Y145.215 E11.53849
G1 X97.749 Y144.927 E11.5691
G1 X97.167 Y144.686 E11.59005
G1 X96.567 Y144.417 E11.61192
G1 X96.307 Y144.297 E11.62144
G1 X95.91 Y144.106 E11.6361
G1 X95.099 Y143.671 E11.66671
G1 X94.565 Y143.333 E11.68773
G1 X94.033 Y142.973 E11.70909
G1 X93.773 Y142.791 E11.71965
G1 X93.389 Y142.514 E11.73539
G1 X92.666 Y141.943 E11.76604
G1 X92.215 Y141.531 E11.78635
G1 X91.738 Y141.069 E11.80844
G1 X91.507 Y140.838 E11.81931
G1 X91.208 Y140.53 E11.83358
G1 X90.596 Y139.843 E11.86418
G1 X90.236 Y139.374 E11.88385
G1 X89.852 Y138.845 E11.90559
G1 X89.653 Y138.561 E11.91712
G1 X89.395 Y138.18 E11.93243
G1 X88.912 Y137.396 E11.96306
G1 X88.644 Y136.882 E11.98234
G1 X88.372 Y136.324 E12.00298
G1 X88.231 Y136.023 E12.01404
G1 X88.032 Y135.58 E12.03019
G1 X87.691 Y134.724 E12.06084
G1 X87.509 Y134.15 E12.08086
G1 X87.334 Y133.538 E12.10204
G1 X87.256 Y133.25 E12.11196
G1 X87.144 Y132.812 E12.127
G1 X86.955 Y131.911 E12.15762
G1 X86.871 Y131.285 E12.17862
G1 X86.798 Y130.585 E12.20203
G1 X86.768 Y130.236 E12.21368
G1 X86.739 Y129.827 E12.22732
G1 X86.713 Y129.245 E12.2467
G1 X86.701 Y128.486 E12.27194
G1 X86.7 Y91.657 E13.49688
G1 X86.701 Y91.502 E13.50204
G1 X86.711 Y90.818 E13.52479
G1 X86.737 Y90.213 E13.54493
G1 X86.781 Y89.601 E13.56534
G1 X86.808 Y89.293 E13.57562
G1 X86.857 Y88.809 E13.5918
G1 X86.989 Y87.898 E13.62242
G1 X87.123 Y87.291 E13.64309
G1 X87.288 Y86.635 E13.66559
G1 X87.368 Y86.335 E13.67592
G1 X87.486 Y85.918 E13.69033
G1 X87.775 Y85.044 E13.72095
G1 X88.011 Y84.474 E13.74147
G1 X88.28 Y83.873 E13.76337
G1 X88.403 Y83.607 E13.77312
G1 X88.594 Y83.21 E13.78777
G1 X89.029 Y82.399 E13.81838
G1 X89.367 Y81.865 E13.8394
G1 X89.727 Y81.333 E13.86076
G1 X89.909 Y81.073 E13.87132
G1 X90.186 Y80.689 E13.88707
G1 X90.757 Y79.966 E13.91771
G0 F6000 X91.071 Y80.214
G1 F1200 X91.453 Y79.797 E13.93652
G1 X91.903 Y79.332 E13.95804
G1 X92.124 Y79.11 E13.96846
G1 X92.444 Y78.799 E13.9833
G1 X93.119 Y78.199 E14.01334
G1 X93.561 Y77.859 E14.03189
G1 X94.09 Y77.475 E14.05363
G1 X94.363 Y77.284 E14.06471
G1 X94.744 Y77.026 E14.08001
G1 X95.513 Y76.553 E14.11004
G1 X95.994 Y76.303 E14.12807
G1 X96.552 Y76.031 E14.14872
G1 X96.841 Y75.896 E14.15933
G1 X97.284 Y75.697 E14.17548
G1 X98.124 Y75.363 E14.20555
G1 X98.66 Y75.194 E14.22424
G1 X99.272 Y75.019 E14.24541
G1 X99.549 Y74.944 E14.25495
G1 X99.987 Y74.832 E14.26999
G1 X100.871 Y74.647 E14.30003
G1 X101.456 Y74.569 E14.31966
G1 X102.156 Y74.496 E14.34307
G1 X102.496 Y74.466 E14.35442
G1 X102.907 Y74.437 E14.36812
G1 X103.463 Y74.413 E14.38663
G1 X104.22 Y74.401 E14.41181
G1 X115.643 Y74.4 E14.79175
G1 X116.476 Y74.411 E14.81945
G1 X117.048 Y74.435 E14.8385
G1 X117.641 Y74.477 E14.85827
G1 X117.949 Y74.504 E14.86855
G1 X118.452 Y74.555 E14.88537
G1 X119.346 Y74.686 E14.91542
G1 X119.911 Y74.811 E14.93467
G1 X120.567 Y74.976 E14.95716
G1 X120.85 Y75.052 E14.96691
G1 X121.268 Y75.17 E14.98136
G1 X122.126 Y75.453 E15.01141
G1 X122.67 Y75.679 E15.031
G1 X123.27 Y75.948 E15.05287
G1 X123.519 Y76.063 E15.06199
G1 X123.916 Y76.254 E15.07664
G1 X124.712 Y76.682 E15.1067
G1 X125.21 Y76.998 E15.12632
G1 X125.742 Y77.358 E15.14768
G1 X125.993 Y77.534 E15.15788
G1 X126.377 Y77.811 E15.17363
G1 X127.086 Y78.371 E15.20368
G1 X127.503 Y78.753 E15.22249
G1 X127.967 Y79.202 E15.24396
G1 X128.188 Y79.423 E15.25436
G1 X128.5 Y79.744 E15.26925
G1 X129.1 Y80.419 E15.29928
G1 X129.441 Y80.861 E15.31785
G1 X129.825 Y81.39 E15.33959
G1 X130.016 Y81.663 E15.35068
G1 X130.274 Y82.044 E15.36598
G1 X130.747 Y82.813 E15.39601
G1 X130.997 Y83.294 E15.41404
G1 X131.269 Y83.852 E15.43468
G1 X131.402 Y84.135 E15.44508
G1 X131.6 Y84.575 E15.46113
G1 X131.933 Y85.414 E15.49116
G1 X132.104 Y85.955 E15.51003
G1 X132.28 Y86.57 E15.5313
G1 X132.356 Y86.849 E15.54092
G1 X132.468 Y87.287 E15.55596
G1 X132.653 Y88.171 E15.586
G1 X132.731 Y88.756 E15.60563
G1 X132.804 Y89.456 E15.62903
G1 X132.833 Y89.793 E15.64028
G1 X132.862 Y90.202 E15.65392
G1 X132.887 Y90.762 E15.67257
G1 X132.899 Y91.521 E15.69781
G1 X132.9 Y128.343 E16.92252
G1 X132.889 Y129.176 E16.95023
G1 X132.865 Y129.748 E16.96927
G1 X132.823 Y130.341 E16.98904
G1 X132.796 Y130.649 E16.99932
G1 X132.745 Y131.152 E17.01614
G1 X132.614 Y132.046 E17.04619
G1 X132.489 Y132.611 E17.06544
G1 X132.324 Y133.267 E17.08794
G1 X132.247 Y133.556 E17.09788
G1 X132.129 Y133.973 E17.1123
G1 X131.844 Y134.831 E17.14237
G1 X131.628 Y135.355 E17.16122
G1 X131.361 Y135.953 E17.183
G1 X131.234 Y136.227 E17.19305
G1 X131.041 Y136.627 E17.20782
G1 X130.612 Y137.422 E17.23786
G1 X130.301 Y137.911 E17.25714
G1 X129.943 Y138.44 E17.27838
G1 X129.77 Y138.688 E17.28844
G1 X129.491 Y139.075 E17.30431
G1 X128.931 Y139.783 E17.33433
G1 X128.549 Y140.201 E17.35317
G1 X128.108 Y140.657 E17.37426
G1 X127.888 Y140.878 E17.38464
G1 X127.559 Y141.198 E17.3999
G1 X126.884 Y141.798 E17.42994
G1 X126.439 Y142.141 E17.44863
G1 X125.91 Y142.525 E17.47037
G1 X125.637 Y142.716 E17.48145
G1 X125.256 Y142.974 E17.49675
G1 X124.487 Y143.447 E17.52678
G1 X124.006 Y143.697 E17.54481
G1 X123.448 Y143.969 E17.56546
G1 X123.166 Y144.101 E17.57581
G1 X122.724 Y144.3 E17.59194
G1 X121.885 Y144.634 E17.62197
G1 X121.337 Y144.807 E17.64109
G1 X120.724 Y144.982 E17.66229
G1 X120.451 Y145.056 E17.6717
G1 X120.013 Y145.168 E17.68673
G1 X119.129 Y145.353 E17.71677
G1 X118.544 Y145.431 E17.7364
G1 X117.844 Y145.504 E17.75981
G1 X117.504 Y145.534 E17.77116
G1 X117.093 Y145.563 E17.78487
G1 X116.537 Y145.587 E17.80338
G1 X115.78 Y145.599 E17.82856
