;FLAVOR:Marlin
;TIME:192
;Filament used: 0.0363771m
;Layer height: 0.12
;MINX:95.825
;MINY:95.825
;MINZ:0.12
;MAXX:124.175
;MAXY:124.175
;MAXZ:7.92
;Generated with Cura_SteamEngine 4.7.1
M140 S60
M105
M190 S60
M104 S200
M105
M109 S200
M82 ;absolute extrusion mode
; Ender 3 Custom Start G-code
G92 E0 ; Reset Extruder
G28 ; Home all axes
G1 Z2.0 F3000 ; Move Z Axis up little to prevent scratching of Heat Bed
G1 X0.1 Y20 Z0.3 F5000.0 ; Move to start position
G1 X0.1 Y200.0 Z0.3 F1500.0 E15 ; Draw the first line
G1 X0.4 Y200.0 Z0.3 F5000.0 ; Move to side a little
G1 X0.4 Y20 Z0.3 F1500.0 E30 ; Draw the second line
G92 E0 ; Reset Extruder
G1 Z2.0 F3000 ; Move Z Axis up little to prevent scratching of Heat Bed
G1 X5 Y20 Z0.3 F5000.0 ; Move over to prevent blob squish
G92 E0
G92 E0
G1 F1500 E-6.5
;LAYER_COUNT:66
;LAYER:0
M107
G0 F6000 X99.023 Y99.089 Z0.12
;TYPE:SKIRT
G1 F1500 E0
G1 F1200 X99.711 Y98.452 E0.01871
G1 X100.451 Y97.876 E0.03742
G1 X101.237 Y97.364 E0.05614
G1 X102.064 Y96.922 E0.07486
G1 X102.926 Y96.552 E0.09358
G1 X103.816 Y96.256 E0.11229
G1 X104.728 Y96.038 E0.13101
G1 X105.655 Y95.897 E0.14972
G1 X106.526 Y95.838 E0.16714
G1 X106.847 Y95.829 E0.17355
G1 X107.155 Y95.825 E0.1797
G1 X112.626 Y95.826 E0.28888
G1 X113.324 Y95.836 E0.30281
G1 X114.26 Y95.89 E0.32152
G1 X115.188 Y96.022 E0.34022
G1 X116.102 Y96.234 E0.35895
G1 X116.994 Y96.523 E0.37766
G1 X117.859 Y96.886 E0.39638
G1 X118.689 Y97.322 E0.41509
G1 X119.48 Y97.827 E0.43382
G1 X120.224 Y98.398 E0.45253
G1 X120.917 Y99.03 E0.47125
G1 X121.554 Y99.718 E0.48996
G1 X122.129 Y100.459 E0.50868
G1 X122.64 Y101.245 E0.52739
G1 X123.082 Y102.073 E0.54612
G1 X123.451 Y102.935 E0.56483
G1 X123.746 Y103.825 E0.58354
G1 X123.964 Y104.737 E0.60225
G1 X124.104 Y105.665 E0.62098
G1 X124.162 Y106.526 E0.6382
G1 X124.171 Y106.846 E0.64459
G1 X124.175 Y107.155 E0.65076
G1 X124.174 Y112.575 E0.75892
G1 X124.165 Y113.302 E0.77343
G1 X124.114 Y114.239 E0.79216
G1 X123.982 Y115.167 E0.81086
G1 X123.773 Y116.081 E0.82957
G1 X123.486 Y116.974 E0.84829
G1 X123.124 Y117.84 E0.86702
G1 X122.69 Y118.671 E0.88573
G1 X122.186 Y119.462 E0.90445
G1 X121.617 Y120.207 E0.92316
G1 X120.986 Y120.902 E0.94189
G1 X120.299 Y121.54 E0.9606
G1 X119.56 Y122.117 E0.97931
G1 X118.774 Y122.629 E0.99803
G1 X117.948 Y123.072 E1.01673
G1 X117.086 Y123.444 E1.03547
G1 X116.197 Y123.74 E1.05417
G1 X115.285 Y123.96 E1.07289
G1 X114.358 Y124.101 E1.0916
G1 X113.474 Y124.162 E1.10929
G1 X113.153 Y124.171 E1.11569
G1 X112.845 Y124.175 E1.12184
G1 X107.39 Y124.174 E1.2307
G1 X106.692 Y124.165 E1.24463
G1 X105.756 Y124.113 E1.26334
G1 X104.827 Y123.981 E1.28206
G1 X103.913 Y123.771 E1.30078
G1 X103.02 Y123.484 E1.3195
G1 X102.155 Y123.121 E1.33822
G1 X101.324 Y122.687 E1.35693
G1 X100.533 Y122.183 E1.37565
G1 X99.788 Y121.613 E1.39436
G1 X99.094 Y120.982 E1.41308
G1 X98.457 Y120.295 E1.43178
G1 X97.88 Y119.555 E1.45051
G1 X97.368 Y118.769 E1.46923
G1 X96.925 Y117.942 E1.48795
G1 X96.554 Y117.081 E1.50666
G1 X96.258 Y116.191 E1.52537
G1 X96.039 Y115.279 E1.54409
G1 X95.898 Y114.352 E1.5628
G1 X95.838 Y113.463 E1.58059
G1 X95.829 Y113.13 E1.58723
G1 X95.825 Y112.833 E1.59316
G1 X95.826 Y107.35 E1.70258
G1 X95.835 Y106.685 E1.71585
G1 X95.888 Y105.749 E1.73456
G1 X96.02 Y104.82 E1.75329
G1 X96.231 Y103.906 E1.77201
G1 X96.519 Y103.014 E1.79071
G1 X96.882 Y102.149 E1.80943
G1 X97.317 Y101.318 E1.82815
G1 X97.821 Y100.528 E1.84685
G1 X98.391 Y99.783 E1.86557
G1 X99.023 Y99.089 E1.8843
G0 F6000 X99.414 Y99.264
G1 F1200 X100.099 Y98.648 E1.90269
G1 X100.835 Y98.095 E1.92106
G1 X101.616 Y97.607 E1.93944
G1 X102.436 Y97.189 E1.9578
G1 X103.29 Y96.844 E1.97618
G1 X104.17 Y96.574 E1.99455
G1 X105.07 Y96.382 E2.01292
G1 X105.984 Y96.268 E2.0313
G1 X106.537 Y96.238 E2.04235
G1 X106.858 Y96.229 E2.04876
G1 X107.155 Y96.225 E2.05469
G1 X112.468 Y96.225 E2.16071
G1 X113.318 Y96.236 E2.17768
G1 X114.237 Y96.289 E2.19605
G1 X115.148 Y96.422 E2.21442
G1 X116.044 Y96.633 E2.23279
G1 X116.918 Y96.921 E2.25115
G1 X117.765 Y97.284 E2.26954
G1 X118.576 Y97.719 E2.28791
G1 X119.346 Y98.223 E2.30627
G1 X120.07 Y98.792 E2.32465
G1 X120.742 Y99.422 E2.34303
G1 X121.357 Y100.107 E2.3614
G1 X121.91 Y100.843 E2.37978
G1 X122.397 Y101.624 E2.39814
G1 X122.814 Y102.445 E2.41652
G1 X123.159 Y103.299 E2.4349
G1 X123.428 Y104.179 E2.45326
G1 X123.62 Y105.08 E2.47165
G1 X123.733 Y105.993 E2.49001
G1 X123.762 Y106.537 E2.50088
G1 X123.771 Y106.857 E2.50727
G1 X123.775 Y107.155 E2.51321
G1 X123.774 Y112.57 E2.62128
G1 X123.765 Y113.297 E2.63579
G1 X123.714 Y114.216 E2.65415
G1 X123.583 Y115.128 E2.67254
G1 X123.373 Y116.024 E2.69091
G1 X123.087 Y116.899 E2.70928
G1 X122.726 Y117.746 E2.72765
G1 X122.292 Y118.558 E2.74602
G1 X121.79 Y119.33 E2.7644
G1 X121.222 Y120.055 E2.78278
G1 X120.594 Y120.728 E2.80115
G1 X119.91 Y121.344 E2.81952
G1 X119.175 Y121.898 E2.83789
G1 X118.395 Y122.387 E2.85626
G1 X117.575 Y122.806 E2.87463
G1 X116.722 Y123.152 E2.893
G1 X115.842 Y123.423 E2.91138
G1 X114.942 Y123.616 E2.92975
G1 X114.028 Y123.731 E2.94813
G1 X113.463 Y123.762 E2.95942
G1 X113.142 Y123.771 E2.96583
G1 X112.845 Y123.775 E2.97176
G1 X107.395 Y123.774 E3.08052
G1 X106.697 Y123.765 E3.09445
G1 X105.778 Y123.713 E3.11282
G1 X104.867 Y123.582 E3.13119
G1 X103.971 Y123.372 E3.14955
G1 X103.096 Y123.085 E3.16793
G1 X102.249 Y122.723 E3.18631
G1 X101.437 Y122.289 E3.20468
G1 X100.666 Y121.787 E3.22304
G1 X99.941 Y121.219 E3.24142
G1 X99.268 Y120.59 E3.25981
G1 X98.653 Y119.906 E3.27816
G1 X98.099 Y119.171 E3.29653
G1 X97.611 Y118.39 E3.31491
G1 X97.192 Y117.57 E3.33329
G1 X96.846 Y116.717 E3.35166
G1 X96.576 Y115.837 E3.37002
G1 X96.383 Y114.936 E3.38841
G1 X96.269 Y114.023 E3.40677
G1 X96.238 Y113.452 E3.41819
G1 X96.229 Y113.119 E3.42483
G1 X96.225 Y112.833 E3.43054
G1 X96.226 Y107.356 E3.53984
G1 X96.235 Y106.691 E3.55311
G1 X96.287 Y105.771 E3.5715
G1 X96.419 Y104.86 E3.58987
G1 X96.63 Y103.964 E3.60824
G1 X96.917 Y103.089 E3.62662
G1 X97.28 Y102.243 E3.64499
G1 X97.714 Y101.431 E3.66336
G1 X98.217 Y100.66 E3.68174
G1 X98.786 Y99.936 E3.70011
G1 X99.414 Y99.264 E3.71847
G0 F6000 X99.806 Y99.442
G1 F1200 X100.487 Y98.849 E3.73649
G1 X101.219 Y98.319 E3.75452
G1 X101.994 Y97.856 E3.77254
G1 X102.807 Y97.463 E3.79056
G1 X103.652 Y97.143 E3.80859
G1 X104.521 Y96.9 E3.8266
G1 X105.409 Y96.734 E3.84462
G1 X106.548 Y96.638 E3.86743
G1 X106.869 Y96.629 E3.87384
G1 X107.155 Y96.625 E3.87955
G1 X112.468 Y96.625 E3.98558
G1 X113.312 Y96.636 E4.00242
G1 X114.214 Y96.689 E4.02045
G1 X115.107 Y96.821 E4.03847
G1 X115.985 Y97.032 E4.05649
G1 X116.841 Y97.32 E4.07451
G1 X117.668 Y97.682 E4.09253
G1 X118.46 Y98.117 E4.11056
G1 X119.211 Y98.619 E4.12859
G1 X119.914 Y99.186 E4.14661
G1 X120.564 Y99.813 E4.16463
G1 X121.156 Y100.495 E4.18266
G1 X121.686 Y101.226 E4.20067
G1 X122.148 Y102.002 E4.2187
G1 X122.541 Y102.815 E4.23672
G1 X122.859 Y103.66 E4.25473
G1 X123.102 Y104.53 E4.27276
G1 X123.267 Y105.418 E4.29078
G1 X123.362 Y106.548 E4.31341
G1 X123.371 Y106.868 E4.3198
G1 X123.375 Y107.155 E4.32553
G1 X123.374 Y112.565 E4.43349
G1 X123.365 Y113.292 E4.448
G1 X123.314 Y114.194 E4.46603
G1 X123.183 Y115.088 E4.48406
G1 X122.974 Y115.966 E4.50207
G1 X122.688 Y116.823 E4.5201
G1 X122.327 Y117.651 E4.53813
G1 X121.895 Y118.443 E4.55613
G1 X121.394 Y119.195 E4.57417
G1 X120.828 Y119.899 E4.59219
G1 X120.203 Y120.55 E4.6102
G1 X119.522 Y121.144 E4.62824
G1 X118.791 Y121.675 E4.64627
G1 X118.017 Y122.139 E4.66427
G1 X117.204 Y122.533 E4.6823
G1 X116.36 Y122.853 E4.70032
G1 X115.49 Y123.098 E4.71835
G1 X114.603 Y123.264 E4.73636
G1 X113.452 Y123.362 E4.75941
G1 X113.131 Y123.371 E4.76582
G1 X112.845 Y123.375 E4.77153
G1 X107.4 Y123.374 E4.88019
G1 X106.702 Y123.365 E4.89412
G1 X105.801 Y123.314 E4.91213
G1 X104.907 Y123.182 E4.93017
G1 X104.029 Y122.973 E4.94818
G1 X103.172 Y122.686 E4.96621
G1 X102.345 Y122.325 E4.98422
G1 X101.552 Y121.892 E5.00225
G1 X100.801 Y121.391 E5.02027
G1 X100.097 Y120.825 E5.03829
G1 X99.446 Y120.199 E5.05632
G1 X98.853 Y119.518 E5.07434
G1 X98.323 Y118.787 E5.09236
G1 X97.859 Y118.012 E5.11038
G1 X97.465 Y117.199 E5.12841
G1 X97.145 Y116.355 E5.14642
G1 X96.901 Y115.485 E5.16446
G1 X96.735 Y114.597 E5.18248
G1 X96.638 Y113.442 E5.20561
G1 X96.629 Y113.109 E5.21226
G1 X96.625 Y112.833 E5.21777
G1 X96.626 Y107.361 E5.32697
G1 X96.635 Y106.696 E5.34024
G1 X96.687 Y105.794 E5.35827
G1 X96.819 Y104.901 E5.37629
G1 X97.029 Y104.023 E5.3943
G1 X97.316 Y103.166 E5.41234
G1 X97.678 Y102.339 E5.43035
G1 X98.111 Y101.547 E5.44837
G1 X98.613 Y100.796 E5.46639
G1 X99.18 Y100.092 E5.48443
G1 X99.806 Y99.442 E5.50244
G1 F1500 E-0.99756
;MESH:PinTest.stl
G0 F6000 X107.239 Y106.16
G0 X107.239 Y107.239
G0 X111.993 Y108.007
G0 X112.175 Y112.175
;TYPE:WALL-INNER
G1 F1500 E5.50244
G1 F1200 X107.825 Y112.175 E5.58925
G1 X107.825 Y107.825 E5.67606
G1 X112.175 Y107.825 E5.76287
G1 X112.175 Y112.175 E5.84968
G0 F6000 X112.575 Y112.575
G1 F1200 X107.425 Y112.575 E5.95245
G1 X107.425 Y107.425 E6.05522
G1 X112.575 Y107.425 E6.158
G1 X112.575 Y112.575 E6.26077
G0 F6000 X112.975 Y112.975
;TYPE:WALL-OUTER
G1 F1200 X107.025 Y112.975 E6.37951
G1 X107.025 Y107.025 E6.49825
G1 X112.975 Y107.025 E6.61699
G1 X112.975 Y112.975 E6.73573
G0 F6000 X112.705 Y112.705
G0 X112.065 Y111.785
G0 X111.785 Y111.785
;TYPE:SKIN
G1 F1200 X108.215 Y111.785 E6.80697
G1 X108.215 Y108.215 E6.87821
G1 X111.785 Y108.215 E6.94946
G1 X111.785 Y111.785 E7.0207
G0 F6000 X112.065 Y111.785
G0 X112.065 Y108.796
G0 X111.624 Y108.796
G1 F1200 X111.203 Y108.374 E7.0326
G0 F6000 X110.637 Y108.374
G1 F1200 X111.624 Y109.361 E7.06045
G0 F6000 X111.624 Y109.927
G1 F1200 X110.071 Y108.374 E7.10428
G0 F6000 X109.506 Y108.374
G1 F1200 X111.624 Y110.493 E7.16407
G0 F6000 X111.624 Y111.058
G1 F1200 X108.94 Y108.374 E7.23982
G0 F6000 X108.374 Y108.374
G1 F1200 X111.624 Y111.624 E7.33154
G0 F6000 X111.058 Y111.624
G1 F1200 X108.374 Y108.94 E7.40729
G0 F6000 X108.374 Y109.506
G1 F1200 X110.493 Y111.624 E7.46708
G0 F6000 X109.927 Y111.624
G1 F1200 X108.374 Y110.071 E7.5109
G0 F6000 X108.374 Y110.637
G1 F1200 X109.361 Y111.624 E7.53876
G0 F6000 X108.796 Y111.624
G1 F1200 X108.374 Y111.203 E7.55066
G0 F6000 X107.635 Y111.203
;MESH:NONMESH
G0 F300 X107.635 Y111.203 Z0.24
G0 F6000 X108.007 Y111.993
G0 X112.175 Y112.175
;TIME_ELAPSED:26.446210
;LAYER:1
M106 S85
;TYPE:WALL-INNER
;MESH:PinTest.stl
G1 F622.6 X107.825 Y112.175 E7.63746
G1 X107.825 Y107.825 E7.72427
G1 X112.175 Y107.825 E7.81108
G1 X112.175 Y112.175 E7.89789
G0 F7500 X112.575 Y112.575
G1 F622.6 X107.425 Y112.575 E8.00067
G1 X107.425 Y107.425 E8.10344
G1 X112.575 Y107.425 E8.20621
G1 X112.575 Y112.575 E8.30899
G0 F7500 X112.975 Y112.975
;TYPE:WALL-OUTER
G1 F622.6 X107.025 Y112.975 E8.42773
G1 X107.025 Y107.025 E8.54646
G1 X112.975 Y107.025 E8.6652
G1 X112.975 Y112.975 E8.78394
G0 F7500 X112.705 Y112.705
G0 X112.065 Y111.785
G0 X111.785 Y111.785
;TYPE:SKIN
G1 F622.6 X108.215 Y111.785 E8.85518
G1 X108.215 Y108.215 E8.92643
G1 X111.785 Y108.215 E8.99767
G1 X111.785 Y111.785 E9.06891
G0 F7500 X111.255 Y111.624
G1 F622.6 X111.624 Y111.255 E9.07933
G0 F7500 X111.624 Y110.689
G1 F622.6 X110.689 Y111.624 E9.10572
G0 F7500 X110.124 Y111.624
G1 F622.6 X111.624 Y110.124 E9.14805
G0 F7500 X111.624 Y109.558
G1 F622.6 X109.558 Y111.624 E9.20636
G0 F7500 X108.992 Y111.624
G1 F622.6 X111.624 Y108.992 E9.28064
G0 F7500 X111.624 Y108.427
G1 F622.6 X108.427 Y111.624 E9.37086
G0 F7500 X108.374 Y111.111
G1 F622.6 X111.111 Y108.374 E9.44811
G0 F7500 X110.545 Y108.374
G1 F622.6 X108.374 Y110.545 E9.50938
G0 F7500 X108.374 Y109.979
G1 F622.6 X109.979 Y108.374 E9.55467
G0 F7500 X109.414 Y108.374
G1 F622.6 X108.374 Y109.414 E9.58403
G0 F7500 X108.374 Y108.848
G1 F622.6 X108.848 Y108.374 E9.5974
G0 F7500 X108.848 Y107.635
;MESH:NONMESH
G0 F300 X108.848 Y107.635 Z0.36
G0 F7500 X111.993 Y108.007
G0 X112.175 Y112.175
;TIME_ELAPSED:37.666832
;LAYER:2
M106 S170
;TYPE:WALL-INNER
;MESH:PinTest.stl
G1 F623.6 X107.825 Y112.175 E9.68421
G1 X107.825 Y107.825 E9.77102
G1 X112.175 Y107.825 E9.85783
G1 X112.175 Y112.175 E9.94464
G0 F9000 X112.575 Y112.575
G1 F623.6 X107.425 Y112.575 E10.04741
G1 X107.425 Y107.425 E10.15019
G1 X112.575 Y107.425 E10.25296
G1 X112.575 Y112.575 E10.35573
G0 F9000 X112.975 Y112.975
;TYPE:WALL-OUTER
G1 F623.6 X107.025 Y112.975 E10.47447
G1 X107.025 Y107.025 E10.59321
G1 X112.975 Y107.025 E10.71195
G1 X112.975 Y112.975 E10.83069
G0 F9000 X112.705 Y112.705
G0 X112.065 Y111.785
G0 X111.785 Y111.785
;TYPE:SKIN
G1 F623.6 X108.215 Y111.785 E10.90193
G1 X108.215 Y108.215 E10.97317
G1 X111.785 Y108.215 E11.04442
G1 X111.785 Y111.785 E11.11566
G0 F9000 X112.065 Y111.785
G0 X112.065 Y108.796
G0 X111.624 Y108.796
G1 F623.6 X111.203 Y108.374 E11.12756
G0 F9000 X110.637 Y108.374
G1 F623.6 X111.624 Y109.361 E11.15541
G0 F9000 X111.624 Y109.927
G1 F623.6 X110.071 Y108.374 E11.19924
G0 F9000 X109.506 Y108.374
G1 F623.6 X111.624 Y110.493 E11.25903
G0 F9000 X111.624 Y111.058
G1 F623.6 X108.94 Y108.374 E11.33478
G0 F9000 X108.374 Y108.374
G1 F623.6 X111.624 Y111.624 E11.4265
G0 F9000 X111.058 Y111.624
G1 F623.6 X108.374 Y108.94 E11.50225
G0 F9000 X108.374 Y109.506
G1 F623.6 X110.493 Y111.624 E11.56204
G0 F9000 X109.927 Y111.624
G1 F623.6 X108.374 Y110.071 E11.60587
G0 F9000 X108.374 Y110.637
G1 F623.6 X109.361 Y111.624 E11.63372
G0 F9000 X108.796 Y111.624
G1 F623.6 X108.374 Y111.203 E11.64562
G0 F9000 X107.635 Y111.203
;MESH:NONMESH
G0 F300 X107.635 Y111.203 Z0.48
G0 F9000 X108.007 Y111.993
G0 X112.175 Y112.175
;TIME_ELAPSED:48.959183
;LAYER:3
M106 S255
;TYPE:WALL-INNER
;MESH:PinTest.stl
G1 F621.4 X107.825 Y112.175 E11.73243
G1 X107.825 Y107.825 E11.81923
G1 X112.175 Y107.825 E11.90604
G1 X112.175 Y112.175 E11.99285
G0 F9000 X112.575 Y112.575
G1 F621.4 X107.425 Y112.575 E12.09563
G1 X107.425 Y107.425 E12.1984
G1 X112.575 Y107.425 E12.30117
G1 X112.575 Y112.575 E12.40395
G0 F9000 X112.975 Y112.975
;TYPE:WALL-OUTER
G1 F621.4 X107.025 Y112.975 E12.52269
G1 X107.025 Y107.025 E12.64143
G1 X112.975 Y107.025 E12.76016
G1 X112.975 Y112.975 E12.8789
G0 F9000 X112.705 Y112.705
G0 X112.065 Y111.785
G0 X111.785 Y111.785
;TYPE:SKIN
G1 F621.4 X108.215 Y111.785 E12.95015
G1 X108.215 Y108.215 E13.02139
G1 X111.785 Y108.215 E13.09263
G1 X111.785 Y111.785 E13.16388
G0 F9000 X111.255 Y111.624
G1 F621.4 X111.624 Y111.255 E13.17429
G0 F9000 X111.624 Y110.689
G1 F621.4 X110.689 Y111.624 E13.20068
G0 F9000 X110.124 Y111.624
G1 F621.4 X111.624 Y110.124 E13.24301
G0 F9000 X111.624 Y109.558
G1 F621.4 X109.558 Y111.624 E13.30132
G0 F9000 X108.992 Y111.624
G1 F621.4 X111.624 Y108.992 E13.3756
G0 F9000 X111.624 Y108.427
G1 F621.4 X108.427 Y111.624 E13.46582
G0 F9000 X108.374 Y111.111
G1 F621.4 X111.111 Y108.374 E13.54307
G0 F9000 X110.545 Y108.374
G1 F621.4 X108.374 Y110.545 E13.60434
G0 F9000 X108.374 Y109.979
G1 F621.4 X109.979 Y108.374 E13.64964
G0 F9000 X109.414 Y108.374
G1 F621.4 X108.374 Y109.414 E13.67899
G0 F9000 X108.374 Y108.848
G1 F621.4 X108.848 Y108.374 E13.69236
G0 F9000 X108.848 Y107.635
;MESH:NONMESH
G0 F300 X108.848 Y107.635 Z0.6
G0 F9000 X111.993 Y108.007
G0 X112.175 Y112.175
;TIME_ELAPSED:60.206025
;LAYER:4
;TYPE:WALL-INNER
;MESH:PinTest.stl
G1 F623.6 X107.825 Y112.175 E13.77917
G1 X107.825 Y107.825 E13.86598
G1 X112.175 Y107.825 E13.95279
G1 X112.175 Y112.175 E14.0396
G0 F9000 X112.575 Y112.575
G1 F623.6 X107.425 Y112.575 E14.14237
G1 X107.425 Y107.425 E14.24515
G1 X112.575 Y107.425 E14.34792
G1 X112.575 Y112.575 E14.45069
G0 F9000 X112.975 Y112.975
;TYPE:WALL-OUTER
G1 F623.6 X107.025 Y112.975 E14.56943
G1 X107.025 Y107.025 E14.68817
G1 X112.975 Y107.025 E14.80691
G1 X112.975 Y112.975 E14.92565
G0 F9000 X112.705 Y112.705
G0 X112.065 Y111.785
G0 X111.785 Y111.785
;TYPE:SKIN
G1 F623.6 X108.215 Y111.785 E14.99689
G1 X108.215 Y108.215 E15.06814
G1 X111.785 Y108.215 E15.13938
G1 X111.785 Y111.785 E15.21062
G0 F9000 X112.065 Y111.785
G0 X112.065 Y108.796
G0 X111.624 Y108.796
G1 F623.6 X111.203 Y108.374 E15.22252
G0 F9000 X110.637 Y108.374
G1 F623.6 X111.624 Y109.361 E15.25037
G0 F9000 X111.624 Y109.927
G1 F623.6 X110.071 Y108.374 E15.2942
G0 F9000 X109.506 Y108.374
